X: 3
T: Lass of Patties Mill
%%VWML:Wrights-3753-p2-0
F: http://www.vwml.org/record/Wrights/3753/p2
%R: march
B: Daniel Wright "Wright's Compleat Collection of Celebrated Country Dances" 1740 p.2
S: http://library.efdss.org/cgi-bin/dancebooks.cgi
Z: 2014 John Chambers <jc:trillian.mit.edu>
M: C|
L: 1/8
K: D
%-------------------------
AG |\
F2E>D F2A2 | d3e c2(BA) | B2A>F (dB) (AF) | E3F (EF)(GA) |\
F2(ED) F2A2 | d4 A4 | (Bc)d2 d3c | d6 :|
(fg) |\
{g}e2d>e c2(BA) | d4 A2(de) | (fe) (dB) (AF) (ED) | E6 AG |\
F2D2 F2A2 | d3e c2(BA) | (Bc)(dB) (cd)(ef) | d6 |]
%-------------------------
%%begintext align
%% Four Hands a cross and all four turn
%% Single .| the same back again and cast off
%% :| Hey at each end by turns.
%%endtext
%-------------------------
%%sep 2 4 300
T: Kings Arms
T: Longways for as many as will.
%R: jig
B: Daniel Wright "Wright's Compleat Collection of Celebrated Country Dances" 1740 p.2
S: http://library.efdss.org/cgi-bin/dancebooks.cgi
Z: 2014 John Chambers <jc:trillian.mit.edu>
M: 6/8
L: 1/8
K: D
%-------------------------
[|\
DED AFD | AFD AFD | ABA def | e3 A>GF/E/ |\
DED AFD | AFD AFD | A>BA d>ef | edc d3 |]
[|\
e>fe edc | B>cd/e/ c>BA | dAF dAF | G>AG/F/ E2A, |\
e>fe e>dc | B>cd/e/ c>BA | fdB ecA | B/c/dB d3 |]
%-------------------------
%%begintext align
%% The 1st Man cast down, the 2d Wo. cast up at the same time and %% then cast back again into their own Places .| their Partners do the %% same :|: 1st Man figures round the 3d Man 1st Wo. figures round %% the 3d Wo. at the same time & turn her Partner in the 3d Cu.
%% Place .| 1st Man figures round the 2d Man, 1st Wo figures round %% the 2d Wo. at the same time & turn at top :| 1st Man foots it with %% the 2d Wo. & turns her .|. 1st Wo. does the same with the 2d man :| %% 1st & 2d Cu. goes cross hands half round with their right hand
%% back with their left & cast off .| 1st and 2d Cu. right & left
%% quite round :#:
%%endtext
%-------------------------
%%sep 2 4 300
